packages/assets/static/images/icons/lighthouse.svg

<svg width="24" height="24" viewBox="0 0 24 24" xmlns="http://www.w3.org/2000/svg">
<path d="M19.5 8.24963C19.3011 8.24963 19.1103 8.32864 18.9697 8.4693C18.829 8.60995 18.75 8.80071 18.75 8.99963V10.4996H17.7047L17.25 5.92463C17.2308 5.73623 17.141 5.56208 16.9988 5.43713L12.9788 1.86338L12.96 1.84744C12.6905 1.62294 12.3508 1.5 12 1.5C11.6492 1.5 11.3095 1.62294 11.04 1.84744L11.0212 1.86338L7.00125 5.43713C6.85896 5.56208 6.7692 5.73623 6.75 5.92463L6.29531 10.4996H5.25V8.99963C5.25 8.80071 5.17098 8.60995 5.03033 8.4693C4.88968 8.32864 4.69891 8.24963 4.5 8.24963C4.30109 8.24963 4.11032 8.32864 3.96967 8.4693C3.82902 8.60995 3.75 8.80071 3.75 8.99963V11.2496C3.75 11.4485 3.82902 11.6393 3.96967 11.78C4.11032 11.9206 4.30109 11.9996 4.5 11.9996H6.14438L5.25656 20.8571C5.23671 21.0652 5.26055 21.2751 5.32658 21.4734C5.3926 21.6718 5.49934 21.8541 5.63995 22.0087C5.78057 22.1634 5.95195 22.2869 6.14311 22.3715C6.33427 22.456 6.54098 22.4997 6.75 22.4996H17.25C17.4593 22.4996 17.6662 22.4557 17.8576 22.3709C18.0489 22.2861 18.2204 22.1622 18.3609 22.0071C18.5015 21.8521 18.6081 21.6693 18.6738 21.4706C18.7395 21.2719 18.7629 21.0617 18.7425 20.8534L17.8556 11.9996H19.5C19.6989 11.9996 19.8897 11.9206 20.0303 11.78C20.171 11.6393 20.25 11.4485 20.25 11.2496V8.99963C20.25 8.80071 20.171 8.60995 20.0303 8.4693C19.8897 8.32864 19.6989 8.24963 19.5 8.24963ZM12 2.99963L14.5312 5.24963H9.46875L12 2.99963ZM8.17875 6.74963H15.8212L16.1962 10.4996H12.75V8.99963C12.75 8.80071 12.671 8.60995 12.5303 8.4693C12.3897 8.32864 12.1989 8.24963 12 8.24963C11.8011 8.24963 11.6103 8.32864 11.4697 8.4693C11.329 8.60995 11.25 8.80071 11.25 8.99963V10.4996H7.80281L8.17875 6.74963ZM6.75 20.9996L7.125 17.2496H16.875L17.25 20.9996H6.75ZM16.7241 15.7496H7.27594L7.65094 11.9996H16.3472L16.7241 15.7496Z"/>
</svg>

<svg viewBox="0 0 24 24" xmlns="http://www.w3.org/2000/svg" aria-hidden="true" fill="currentColor"><path d="M19.5 8.25a.75.75 0 0 0-.75.75v1.5h-1.045l-.455-4.575a.75.75 0 0 0-.251-.488l-4.02-3.574-.019-.016a1.5 1.5 0 0 0-1.92 0l-.019.016-4.02 3.574a.75.75 0 0 0-.251.488L6.295 10.5H5.25V9a.75.75 0 1 0-1.5 0v2.25a.75.75 0 0 0 .75.75h1.644l-.887 8.857A1.5 1.5 0 0 0 6.75 22.5h10.5a1.5 1.5 0 0 0 1.492-1.647L17.857 12H19.5a.75.75 0 0 0 .75-.75V9a.75.75 0 0 0-.75-.75M12 3l2.531 2.25H9.47zM8.179 6.75h7.642l.375 3.75H12.75V9a.75.75 0 1 0-1.5 0v1.5H7.803zM6.75 21l.375-3.75h9.75L17.25 21zm9.974-5.25H7.276L7.65 12h8.696z"/></svg>
